icons/arrow-up.svg

<svg xmlns="http://www.w3.org/2000/svg" width="24" height="24" viewBox="0 0 24 24">
  <path d="M12,3 L12.0190181,3.00017973 L12.0190181,3.00017973 L12.0590314,3.0017331 C12.0706933,3.0024185 12.0823456,3.0033072 12.0939823,3.00439921 L12.1166211,3.00672773 L12.1166211,3.00672773 L12.1437426,3.01032389 C12.1634888,3.01317627 12.1831662,3.01661969 12.202746,3.02065418 C12.2116533,3.02239951 12.2204944,3.02434704 12.2292908,3.02641071 L12.2610035,3.0344875 L12.2610035,3.0344875 L12.2918437,3.0433274 C12.298628,3.04539061 12.3053947,3.0475275 12.3121425,3.04973809 C12.3317977,3.05612249 12.3515792,3.06331574 12.3710585,3.07110396 C12.3887956,3.07819642 12.4060985,3.08567905 12.4232215,3.09367336 C12.4419547,3.10247102 12.4604898,3.11185933 12.4786822,3.12179647 C12.4935488,3.12981337 12.5087703,3.13863517 12.5238,3.14789148 C12.5283232,3.15078482 12.5322148,3.15322344 12.5360882,3.15568797 L12.574499,3.18129278 C12.5874718,3.19041884 12.6002762,3.19988945 12.6128994,3.20970461 C12.6210009,3.21613439 12.6232288,3.21790694 12.625449,3.21968877 L12.7071068,3.29289322 L18.363961,8.94974747 C18.7544853,9.34027176 18.7544853,9.97343674 18.363961,10.363961 C18.0034771,10.724445 17.436246,10.7521745 17.0439548,10.4471496 L16.9497475,10.363961 L12.9991458,6.414 L13,20 C13,20.5522847 12.5522847,21 12,21 C11.4871642,21 11.0644928,20.6139598 11.0067277,20.1166211 L11,20 L10.9991458,6.414 L7.05025253,10.363961 C6.65972824,10.7544853 6.02656326,10.7544853 5.63603897,10.363961 C5.27555501,10.0034771 5.24782547,9.43624601 5.55285036,9.04395481 L5.63603897,8.94974747 L11.2928932,3.29289322 L11.374551,3.21968877 C11.3758339,3.21865914 11.3771194,3.21763261 11.3784075,3.21660919 L11.2928932,3.29289322 C11.332358,3.25342847 11.3743006,3.21795187 11.4182204,3.1864634 C11.4377852,3.17252629 11.4583066,3.15891923 11.4793398,3.14606743 C11.4928304,3.13772719 11.5064305,3.12986112 11.5201698,3.12234168 C11.5330362,3.11536576 11.5465429,3.10835177 11.5602253,3.10164115 C11.5888781,3.08786737 11.6085245,3.07927366 11.6283738,3.07134142 C11.6508514,3.06244532 11.6689468,3.0559003 11.6872762,3.04987089 C11.6940544,3.0477016 11.7010958,3.0454746 11.7081563,3.0433274 L11.7392043,3.03434781 C11.7496394,3.03153649 11.760142,3.0288898 11.7707092,3.02641071 L11.797254,3.02065418 C11.8169264,3.01660063 11.8366972,3.01314373 11.8565374,3.01028349 C11.8651345,3.00897443 11.8742379,3.00778945 11.8833789,3.00672773 L11.9057193,3.00442725 C11.9174552,3.00332241 11.929207,3.00242436 11.9409686,3.0017331 L11.9806591,3.0001833 C11.9870914,3.00006128 11.9935385,3 12,3 Z"/>
</svg>

<svg xmlns="http://www.w3.org/2000/svg" viewBox="0 0 24 24">
  <path d="M12 3h.06a1 1 0 0 1 .03 0h.03l.02.01a1 1 0 0 1 .09.02h.03l.03.01a1 1 0 0 1 .23.1l.02.02.03.02a1 1 0 0 1 .06.04l.08.07 5.65 5.66a1 1 0 0 1-1.32 1.5l-.09-.09L13 6.41V20a1 1 0 0 1-2 .12V6.4l-3.95 3.95a1 1 0 0 1-1.5-1.32l.09-.09 5.65-5.66.08-.07-.08.07a1 1 0 0 1 .42-.25h.03a1 1 0 0 1 .03-.01h.03a1 1 0 0 1 .08-.02h.03a1 1 0 0 1 .03 0l.04-.01H12z"/>
</svg>
